X: 824
T: Right, Right On
C:Bill Monroe, Arr. Mike Compton
B: jims roots
M:4/4
L:1/8
Q: 1/4=100
K:F
V:1 
%Q:440
ag | "F"f2 cc A2 GG | FFFG _EEEF | "Bb"DB,DD FFFD | "F"[F2C2] [FC][FC] [F2A,2] ag |
f2 cc AGGE | FFFG CCCD | "C"DG,AA EGGA | [c2E2] [cE][cE] caag ||
"F"f2 cc AGGF | FFFG _EEEF | "Bb"DB,DD FFFD | "F"[F2C2] [FC][FC] [FC][FC]G,_A, |
A,2 [A2F2] A,C [A2F2] | "A"A,2 A_A "G"=A2 G2 | "C"CCEG c2 C2 | "F"[F2C2] [FC][FC] [FC]A cc ||
AFAA AFAA | cccf aaag | "Bb"fccA cBAG | "F"F2 FF FAcc |
AFAA AccA | Acce fece | "C"eggg gbge | c4 cccc' ||
"F"c'ggf fedA | FDFF C3C | "Bb"DDFA BDFF | "F"[F2C2] [F2C2] [F2C2] G,A, |
A,2 [F2A,2] DC A,2 | "A"A,G,A,A, "G"A,2 [G2G,2] | "C"[EC][EC][EC]G c2 [E2C2] | "F"[F8A,8] |
% abcbook-tune_id 6298c27957e20a7cb0673575


% abcbook-boost 0
% abcbook-tablature 
% abcbook-transpose 
% abcbook-lastupdated 1654178426900
% abcbook-soundfonts 
% abcbook-repeats 1


